X:153
M:C
L:1/8
Q:1/4=80
K:D
d|A<F F>E D>E F<d|A<F F>E DB,B,>d|A<F F>E D>EF>D|
E>F A/G/F/E/ DB,B,d|A<F F>E D>E F<d|A<F F>E DB,B,d|
d<a f>a bee>f|d>a f<a f<d d>B|A<F F>E DB,B,>f|d>afb a>d f<b|
d<a f>a bee>f|d<af<d e<c d e/4d/4c/4B/4|A<F F>E DB,B,||

